**kern	**kern
*staff1	*staff1
*solos[solo1,solo2]
=1-	=1-
*clefG2	*clefG2
*k[]	*k[]
*C:	*C:
*M4/4	*M4/4
1r	.
=2	=2
1r	.
=3	=3
1r	.
=4	=4
1r	.
=5	=5
1r	.
=6	=6
1r	.
=7	=7
1r	.
=8	=8
2r	.
4r	.
8r	.
8G/	.
=9	=9	!!Head
*>head1
{8B/L	1C:maj
8d/	.
8c/	.
8B/J	.
4d/	.
8r	.
[8f/	.
=10	=10
8f/L]	2D:min
8e/	.
8c/	.
8A/J	.
4e/	2G:dom
8c/L	.
[8G/J	.
=11	=11
8G/L]	2E:min
[8g/	.
8g/]	.
8c/J	.
8d/L	2A:dom
8c/J	.
4d/}	.
=12	=12
8r	2D:min
{4d/	.
8c/	.
8e/L	2G:dom
8g/J	.
12f/L	.
12g/	.
12f/J	.
=13	=13
12e/L	1C:dom
12f/	.
12e/J	.
8c/L	.
[8B-/J	.
8B-/L]	.
[8a/	.
8a/]	.
8e/J	.
=14	=14
8f/L	2F:maj
8c/	.
8A/	.
8F/J	.
8A-/L	2B-:dom
[8e/	.
8e/]	.
8d/J	.
=15	=15
8g/L	2E-:min
8G/	.
8A/	.
[8B-/J	.
4B-/]}	2A-:dom:9-
8r	.
8g/	.
=16	=16
8f/L	2D:min
8c/	.
8e/	.
[8d/J	.
8d/L]	2G:dom
8A-/	.
8e/	.
8B/J	.
=17	=17
8g/L	1C:maj
8G/	.
8A/	.
[8B-/J	.
4B-/]	.
8r	.
8A/	.
=18:|!	=18:|!
4e/	1C:maj
8c/L	.
8A/J	.
4c/	.
4r	.
=19	=19
4r	1E:dom	!!Bridge
8r	.
{16e/LL	.
16e-/JJ	.
8d/L	.
8en/	.
8f#/	.
8g#/J	.
=20||	=20||
8dd-\L	1E:dom
8cc\J	.
2b\}	.
4r	.
=21	=21
8r	1A:dom
{8d#/L	.
8e/	.
8f#/J	.
8g/L	.
8f#/	.
8e/	.
8dn/J	.
=22	=22
12c#/L	1A:dom
12d/	.
12d#/J	.
2e/}	.
4r	.
=23	=23
4r	1D:dom
{12d/L	.
12e/	.
12f/J	.
8f#/L	.
8g/	.
8a/	.
8b/J	.
=24	=24
8cc\L	1D:dom
8dd\	.
8ee\	.
[8b\J	.
8b\]	.
24ee\LL	.
24dd\	.
24cc\JJ	.
8a/L	.
8f/J	.
=25	=25
8d/L	1D:min
8A/	.
8c#/	.
8a/J	.
12f/L	.
12c#/	.
12A/J	.
8cn/L	.
8A/J	.
=26	=26
12B/L	1G:dom
12d/	.
12f/J	.
12a-/L	.
12b-/	.
12a-/J	.
8g/L	.
8f/	.
8e/	.
8d/J	.
=27	=27
8B/L	1C:maj	!!Head 2
8d/	.
8c/	.
8B/J	.
4d/}	.
8r	.
{[8f/	.
=28||	=28||
8f/L]	2D:min
8e/	.
8c/	.
8A/J	.
4e/	2G:dom
8c/L	.
[8G/J	.
=29	=29
8G/L]	2E:min
[8g/	.
8g/]	.
8G/J	.
8d/L	2A:dom
8c/J	.
4d/}	.
=30	=30
8r	2D:min
{4d/	.
8c/	.
8e/L	2G:dom
8g/J	.
12f/L	.
12g/	.
12f/J	.
=31	=31
12e/L	1C:dom
12f/	.
12e/J	.
8c/L	.
[8B-/J	.
8B-/L]	.
[8a/	.
8a/]	.
8e/J	.
=32	=32
8f/L	2F:maj
8c/	.
8A/	.
8F/J	.
8A-/L	2B-:dom
[8e/	.
8e/]	.
8d/J	.
=33	=33
8g/L	2C:maj
8G/	.
8A/	.
[8B-/J	.
4B-/]	2A:dom
8r	.
8A/	.
=34	=34
4e/	2D:min
8c/L	.
8A/J	.
4c/}	2G:dom
4r	.
=35	=35	!!A1	Chorus 1
4r	1C:maj
8r	.
*>solo1
{8e/	.
8g/L	.
8f/	.
8e/	.
8c/J	.
=36||	=36||
8d/L	2D:min
8c/J	.
12B/L	.
12d/	.
12f/J	.
12a-/L	2G:dom
12b-/	.
12a-/J	.
8g/L	.
8f/J	.
=37	=37
16e/LL	2E:min
16g/	.
16b/	.
16dd/JJ	.
4a/}	.
2r	2A:dom
=38	=38
4r	2D:min
8r	.
{[8b-\	.
24b-\LL]2G:dom	.
24cc\	.
24b-\JJ	.
8a-/L	.
8g/	.
8f/J	.
=39	=39
8e/L	1C:dom
8c/	.
8c#/	.
8d/J	.
8B-/L	.
8A-/J	.
12An/L	.
12c#/	.
12e/J	.
=40	=40
8g/L	2F:maj
8f/	.
8c/	.
8A/J	.
8A-/L	2B-:dom
8f/	.
8d/	.
8e-/J	.
=41	=41
8e/L	2E:min
8G/	.
8A/	.
8B/J	.
8d/L	2A:dom
8c/J}	.
4r	.
=42	=42
2r	2D:min
4r	2G:dom
{8g/L	.
8a/J	.
=43	=43
8cc\L	1C:maj
8ee-\	.
8dd\	.
[8cc\J	.
8cc\L]	.
[8b-\J	.
24b-\LL]	.
24cc\	.
24b-\JJ	.
8a/	.
=44||	=44||
8a-/L	2D:min
8f/	.
8e-/	.
8c/J	.
4g/}	2G:dom
8r	.
{8f/	.
=45	=45
12e/L	2E:min
12g/	.
12b/J	.
8dd/L	.
8a/J}	.
4r	2A:dom
8r	.
{16cc/LL	.
16a/JJ	.
=46	=46
8f/L	2D:min
8e/	.
8d/	.
8c/J	.
12B/L	2G:dom
12d/	.
12f/J	.
8a-/L	.
16b-/L	.
16a-/JJ	.
=47	=47
8g/L	1C:dom
8f/	.
8e/	.
8c/J	.
8c#/L	.
8d/	.
8B-/	.
8G/J	.
=48	=48
8c/L	2F:maj
8A-/J	.
12An/L	.
12c/	.
12e/J	.
8g/L	2B-:dom
8f/	.
8A/	.
8A-/J	.
=49	=49
8G/L	1C:maj
8f/	.
8d/	.
8d#/J	.
2e/}	.
=50	=50
2r	1C:maj
8r	.
{8e/L	.
8f#/	.
8a/J	.
=51	=51
8a-/L	1E:dom
8g-/	.
8e/	.
8e-/J	.
8d/L	.
8en/	.
8f#/	.
8a-/J	.
=52||	=52||
4cc#\	1E:dom	!!B2
8ee\L	.
8b\J}	.
2r	.
=53	=53
{24ff#\LL1A:dom	.
24gg\	.
24ff#\JJ	.
8ee\L	.
8dd\	.
[8cc#\J	.
8cc#\L]	.
8ee\J	.
4b\	.
=54	=54
8r	1A:dom
8d#/L	.
8e/	.
8f#/J	.
4g/}	.
4r	.
=55	=55
4r	1D:dom
8r	.
{16e/LL	.
16f/JJ	.
16f#/LL	.
16g/	.
16a/	.
16b/JJ	.
16cc/LL	.
16b/	.
16a/	.
16g/JJ	.
=56	=56
16f#/LL	1D:dom
16a/	.
16cc/	.
16ee/JJ	.
4b\}	.
8r	.
{24ee\LL	.
24dd\	.
24cc\JJ	.
8a/L	.
8f#/J	.
=57	=57
8d/L	1D:min
8A/	.
8c#/	.
8f/J}	.
4r	.
8r	.
{[8cn/	.
=58	=58
8c/L]	1G:dom
8A/J	.
12B/L	.
12d/	.
12f/J	.
12a-/L	.
12b-/	.
12a-/J	.
8g/L	.
8f/J	.
=59	=59
4e/	1C:maj	!!A2
8c/L	.
8A/J	.
4.c/	.
8e/	.
=60||	=60||
8f/L	2D:min
8g/	.
8a/	.
8b/J	.
8cc/L	2G:dom
8g/J}	.
4r	.
=61	=61
4r	2E:min
8r	.
{8b\	.
4a/	2A:dom
8r	.
8e/	.
=62	=62
8g/L	2D:min
8f/	.
8c/	.
8A/J	.
8A-/L	2G:dom
8f/	.
8d/	.
8e-/J	.
=63	=63
8e/L	1C:dom
8c/	.
8c#/	.
8d/J	.
8B-/L	.
8G/	.
8c#/	.
8B-/J	.
=64	=64
12A/L	2F:maj
12c/	.
12e/J	.
8g/L	.
[8f/J	.
8f/L]	2B-:dom
8c/	.
8A-/	.
8G-/J	.
=65	=65
8G/L	1C:maj
[8d/J	.
2d/]}	.
4r	.
=66	=66
4r	2D:min
8r	.
{[8d/	.
8d/L]	2G:dom
8c/	.
8d/	.
8e/J	.
=67	=67
8f/L	1C:maj
8g/	.
8e/	.
8c/J	.
4d/}	.
4r	.
=68||	=68||
4r	2D:min
8r	.
{[8b\	.
4b\]	2G:dom
4a/	.
=69	=69
8g/L	2E:min
8d/J	.
12f/L	.
12a/	.
12cc/J	.
12ee\L	2A:dom
12ff\	.
12ff#\J	.
8gg\L	.
8ff#\J	.
=70	=70
8ff\L	2D:min
8ee\	.
8dd\	.
8dd-\J	.
8cc\L	2G:dom
8b-\J	.
16a-/LL	.
16b-/	.
16a-/	.
16f/JJ	.
=71	=71
8e-/L	2C:dom
8c/J	.
24g/LL	.
24a-/	.
24g/JJ	.
8f/	.
8e-/L	.
8c/	.
8c#/	.
8d/J	.
=72	=72
8B-/L	2F:maj
8A-/J	.
12An/L	.
12c/	.
12e/J	.
8g/L	2B-:dom
8f/	.
8c/	.
8A/J	.
=73	=73
4.e/	2E:min
[8g/	.
4g/]}	2A:dom
4r	.
=74	=74
2r	2D:min
8r	2G:dom
{[8cc\	.
24cc\LL]	.
24dd\	.
24cc\JJ	.
8b\	.
=75	=75
8dd\L	1C:maj	!!A3	Chorus 2
8cc\J}	.
4r	.
4r	.
8r	.
*solo2
{8g/	.
=76||	=76||
4b\	2D:min
8b\L	.
8cc\J	.
8b/L	2G:dom
8a/	.
8g/	.
8e/J	.
=77	=77
4a/}	2E:min
4r	.
8r	2A:dom
{8f/L	.
8a/	.
8cc/J	.
=78	=78
8a/L	2D:min
8e-/	.
8d-/	.
8G/J	.
4.B-/	2G:dom
8A-/	.
=79	=79
8G/L	1C:dom
8F/J	.
12E/L	.
12G/	.
12B-/J	.
8d/L	.
8d-/	.
8c/	.
8B-/J	.
=80	=80
8A/L	2F:maj
8c/	.
8d/	.
8c/J	.
8g/L	2B-:dom
8f/	.
8c/	.
8A-/J	.
=81	=81
8G/L	1C:maj
8f/	.
8d/	.
8d#/J	.
4e/}	.
4r	.
=82	=82
1r	1C:maj
=83	=83
{2b\	1E:dom	!!B3
8f#/L	.
8g#/	.
8a/	.
8g#/J	.
=84||	=84||
4f#/}	1E:dom
4r	.
4r	.
8r	.
{[8b\	.
=85	=85
4.b\]	1A:dom
8d#/	.
8e/L	.
8f#/	.
8g/	.
8f#/J	.
=86	=86
4e/}	1A:dom
4r	.
4r	.
{[4b\	.
=87	=87
4.b\]	1D:dom
8d#/	.
8e/L	.
8f#/	.
8g/	.
8f#/J	.
=88	=88
8e/L	1D:dom
8e-/	.
8d/	.
8en/J	.
4f#/}	.
4r	.
=89	=89
8r	1D:min
{16d/LL	.
16e/J	.
8f/	.
8g/J	.
8a\L	.
8b\	.
8cc\	.
8dd\J	.
=90	=90
8ee/L	1G:dom
8a/J}	.
4r	.
{6a-/	.
6b\	.
6ff\	.
=91	=91
4ee\}	1C:maj	!!A4
4r	.
4r	.
{8g/L	.
8a/J	.
=92||	=92||
8cc\L	2D:min
8dd\J}	.
4r	.
4r	2G:dom
{8g/L	.
8a/J	.
=93	=93
8cc\L	2E:min
8ee-\	.
8dd\	.
8cc\J	.
8b-/L	2A:dom
8b-/	.
8a-/	.
8f/J	.
=94	=94
8e-/L	2D:min
8c/	.
8g/	.
8f/J}	.
4r	2G:dom
8r	.
{8e-/	.
=95	=95
12e/L	1C:dom
12f/	.
12f#/J	.
8g/L	.
8fn/J	.
8e/L	.
8c/	.
8c#/	.
8d/J	.
=96	=96
8B-/L	2F:maj
8A-/J	.
12An/L	.
12c/	.
12e/J	.
8g/L	2B-:dom
8f/	.
8c/	.
8A-/J	.
=97	=97
8G/L	1C:maj
8f/	.
8d/	.
8e-/J	.
8en/L	.
[8c/J	.
4c/]}	.
=98	=98
8r	2D:min
{8cc\	.
12dd\L	.
12cc\	.
12b\J	.
8dd\L	2G:dom
8cc\	.
8b\	.
8a\J	.
=99	=99
8g/L	1C:maj
8f/	.
8e/	.
[8f/J	.
4f/]}	.
4r	.
==	==
*-	*-
